packages/calcite-ui-icons/icons/model-history-24.svg

<?xml version="1.0" encoding="UTF-8"?><svg id="icons" xmlns="http://www.w3.org/2000/svg" viewBox="0 0 24 24"><defs><style>.cls-1{fill:none;}.cls-1,.cls-2{stroke-width:0px;}</style></defs><path class="cls-2" d="M19.77985,10.0282c-.83905.63232-1.8382,1.05878-2.92731,1.20715-.41656.49158-.70551,1.09534-.80212,1.76465h-2.05042v-2h-4.29785l-2.41302-2.41302c.43524-.58405.70184-1.30139.70184-2.08698,0-1.93304-1.55798-3.5-3.49097-3.5s-3.5,1.56696-3.5,3.5,1.56702,3.5,3.5,3.5c.78534,0,1.5011-.26794,2.08331-.70477l2.41669,2.41669v3.73242l-2.33118,2.33118c-.59656-.47791-1.34344-.77551-2.16882-.77551-1.93298,0-3.5,1.56702-3.5,3.5s1.56702,3.5,3.5,3.5,3.49097-1.56702,3.49097-3.5c0-.74554-.23566-1.43347-.63135-2.00122l2.49878-2.49878h4.1416v-2h2.05042c.24451,1.69403,1.68787,3,3.44958,3,1.93298,0,3.49103-1.56702,3.49103-3.5,0-1.8371-1.41217-3.32678-3.21118-3.4718ZM4.5,9c-1.38074,0-2.5-1.11932-2.5-2.5s1.11926-2.5,2.5-2.5,2.5,1.11926,2.5,2.5-1.11932,2.5-2.5,2.5ZM4.5,23c-1.38074,0-2.5-1.11932-2.5-2.5s1.11926-2.5,2.5-2.5,2.5,1.11926,2.5,2.5-1.11932,2.5-2.5,2.5ZM13,15h-3v-3h3v3ZM19.5,16c-1.38074,0-2.5-1.11932-2.5-2.5s1.11926-2.5,2.5-2.5,2.5,1.11926,2.5,2.5-1.11926,2.5-2.5,2.5ZM16,10c2.75702,0,5-2.24298,5-5S18.75702,0,16,0s-4.991,2.24298-4.991,5,2.23398,5,4.991,5ZM16,1c2.20538,0,4,1.79462,4,4s-1.79462,4-4,4-4-1.79468-4-4,1.79462-4,4-4ZM18,6h-3V2h1v3h2v1Z"/><rect class="cls-1" width="24" height="24"/></svg>

<svg xmlns="http://www.w3.org/2000/svg" viewBox="0 0 24 24"><path d="M19.78 10.028a6.259 6.259 0 0 1-2.927 1.207A3.501 3.501 0 0 0 16.05 13H14v-2H9.702L7.29 8.587A3.478 3.478 0 0 0 7.991 6.5C7.991 4.567 6.433 3 4.5 3a3.5 3.5 0 1 0 0 7c.785 0 1.501-.268 2.083-.705L9 11.712v3.732l-2.331 2.332A3.453 3.453 0 0 0 4.5 17a3.5 3.5 0 0 0 0 7 3.492 3.492 0 0 0 3.491-3.5 3.49 3.49 0 0 0-.631-2.001L9.858 16H14v-2h2.05a3.49 3.49 0 0 0 3.45 3 3.492 3.492 0 0 0 3.491-3.5 3.482 3.482 0 0 0-3.211-3.472zM4.5 9a2.5 2.5 0 1 1 0-5 2.5 2.5 0 0 1 0 5zm0 14a2.5 2.5 0 1 1 0-5 2.5 2.5 0 0 1 0 5zm8.5-8h-3v-3h3v3zm6.5 1a2.5 2.5 0 1 1 0-5 2.5 2.5 0 0 1 0 5zM16 10c2.757 0 5-2.243 5-5s-2.243-5-5-5-4.991 2.243-4.991 5 2.234 5 4.991 5zm0-9c2.205 0 4 1.795 4 4s-1.795 4-4 4-4-1.795-4-4 1.795-4 4-4zm2 5h-3V2h1v3h2v1z" stroke-width="0"/><path stroke-width="0" fill="none" d="M0 0h24v24H0z"/></svg>
